X: 105104
T: GLENBURNIE RANT
Q:"Reel."
R: Reel.
%R:reel
B: James Kerr "Merry Melodies" v.1 p.5 s.1 #4
Z: 2017 John Chambers <jc:trillian.mit.edu>
M: C
L: 1/8
K: Em
|: e2 |\
E2EF E2EF | DEFG AFDF |\
E2(EF) E2B2 | efe^d e2 :|\
B2 |\
e2ef g2fe | defg afdf |
e2ef g2fe | efe^d e2B2 |\
e2ef g2fe | defg afdf |\
g2ag f2gf | efe^d e2 |]\
"_Fine."{E}HE4 ||

% %newpage
%%sep 1 1 500
%%sep 1 1 500
%%center Set. 5th.

%%sep 1 1 500
%%sep 1 1 500

